X:1
T:Title
%%score ( 1 2 ) { 3 | 4 }
L:1/8
Q:1/4=110
M:4/4
K:E
V:1 treble nm="Grand Piano, Unnamed-000"
V:2 treble 
V:3 bass nm="Choir Pad, Merton (Monk), 87.87"
V:4 bass 
V:1
 [B,E]2 [B,G]2 [B,B]2 [CB]2 | [EA]2 [Ec]2 [Ec]2 [EB]2 | [EG]2 [E^A]2 [DB]2 [FB]2 | %3
w: By~William~Henry~Monk,~1850 * * *|||
 [Gc]2 c-[Ec] [DB]4 | [DB]2 A-[FA] [EG]2 [FB]2 | [EA]2 [EG]2 [DF]2 E2 | [CF]2 [^EG]2 [FA]2 [=EG]2 | %7
w: ||||
 [EF]2 [EF]2 E4- | E4 z4 |] %9
w: ||
V:2
 x8 | x8 | x8 | z2 .F2 z4 | z2 .E2 z4 | x8 | x8 | x8 | x8 |] %9
V:3
 G,2 B,2 F,2 F,2 | E,2 A,2 A,2 G,2 | B,2 E,2 F,2 B,2 | B,2 ^A,2 B,4 | D2 CB, B,2 B,2 | %5
 C2 B,2 B,A, G,2 | A,2 B,2 C2 B,2 | C2 B,A, G,4- | G,4 z4 |] %9
V:4
 E,2 E,2 D,2 B,,2 | C,2 A,,B,, C,D, E,2 | E,2 C,2 B,,2 D,2 | E,2 F,2 B,,4 | B,,2 C,D, E,2 D,2 | %5
 C,2 E,2 B,,2 C,2 | A,,2 G,,2 F,,2 G,,2 | A,,2 B,,2 [E,,E,]4- | [E,,E,]4 z4 |] %9

